**kern
*staff2
*tb16
=1-
*clefG2
*k[f#c#g#d#]
*met(c)
*M4/4
8b\
.
8r
.
4r
.
.
.
4r
.
.
.
4r
.
.
.
=2
*^
[4.bb/	2B\ 2g#\
.	.
.	.
.	.
.	.
.	.
8bb/L]	.
.	.
*v	*v
16gg#/
16ee/JJ
*^
4.ryy	8b\L
.	.
.	8b\
.	.
.	8a#\ 8cc#\
.	.
*v	*v
=3
2a\ 2dd#\
.
.
.
.
.
.
.
4g#\ 4ee\
.
.
.
4r
.
.
.
=4
8B/L
.
8e/
.
8g#/
.
8e/J
.
8A#/L
.
8e/
.
8f##/
.
8e/J
.
=5
!!linebreak:original
8B/L
.
8e/
.
8g#/
.
8e/J
.
8B/L
.
8e/
.
8g#/
.
8e/J
.
=6
8e/L
.
8g#/
.
8b/
.
8g#/J
.
8e/L
.
8f#/
.
8a#/
.
8f#/J
.
=7
8e/L
.
8g#/
.
8b/
.
8g#/J
.
8e/L
.
8g#/
.
8b/
.
8g#/J
.
=8
!!linebreak:original
8d#/L
.
8f#/
.
8b/
.
8g#/J
.
8e/L
.
8f#/
.
8a#/
.
8f#/J
.
=9
8d#/L
.
8f#/
.
8d#/
.
8f#/J
.
8a/L
.
8f#/
.
8e/
.
8g#/J
.
=10
8A/L
.
8c#/
.
8e/
.
8c#/J
.
8A/L
.
8c#/
.
8F#/
.
8c#/J
.
=11
!!linebreak:original
8F#/L
.
8B/
.
8d#/
.
8B/J
.
8d#/L
.
8f#/
.
8fn/
.
8a/J
.
=12
8e/L
.
8a/
.
8dn/
.
8f#/J
.
8c#/L
.
8e/
.
8a/
.
8e-/J
.
=13
8gn/L
.
8d#/
.
8cn/
.
8dn/J
.
8B/L
.
8d/
.
8g/
.
8d/J
.
=14
!!linebreak:original
8e/L
.
8f#/
.
8d#/
.
8f#/J
.
8A#/L
.
8f#/
.
8B/
.
8f#/J
.
=15
8a#/L 8cc#/L
.
8f#/
.
8b/ 8ddn/
.
8e#/J
.
4f#/ 4a#/
.
.
.
4r
.
.
.
=16
8r
.
8B/L 8d#/L 8f#/L 8a/L
.
8B/ 8d#/ 8f#/ 8a/
.
8B/J 8d#/J 8f#/J 8a/J
.
4B/ 4d#/ 4f#/ 4a/
.
.
.
4r
.
.
.
=17
!!linebreak:original
8r
.
8B/L 8d#/L 8f#/L 8a/L
.
8B/ 8d#/ 8f#/ 8a/
.
8B/J 8d#/J 8f#/J 8a/J
.
4B/ 4d#/ 4f#/ 4a/
.
.
.
4r
.
.
.
=18
8r
.
8g#/L 8b/L
.
8f##/ 8a#/
.
8f#/J 8an/J
.
8e/L 8g#/L
.
8ee/ 8gg#/
.
8dd##/ 8ff#/
.
8dd#/J 8ffn/J
.
=19
8r
.
8r
.
4r
.
.
.
4r
.
.
.
4r
.
.
.
==
*-
